X: 052
T: Lady Madelina Palmers Birth Day
R: reel
M: C|
L: 1/8
Z: 2012 John Chambers <jc:trillian.mit.edu>
B: J. Anderson "Budget of Strathspeys, Reels and Country Dances" (Early 1800s) p.5 #2
F: http://imslp.org/wiki/Anderson%27s_Budget_of_Strathspeys,_Reels_and_Country_Dances_(Various)
K: D
f | d2(Ad) FdAd | d2 (g/f/e/d/) ceef | d2Ad FdAd | (c/d/e) (eg) fdd :|
f | d<dfd adfd | d<dfd ceef | d<dfd adfd | (c/d/e) (eg) fddf |
    d<dfd adfd | d<dfd ceef | .d.d.e.e .f.f.g.g | .a.a d'.a fdd |]

%%sep 2 1 500
%%sep 1 1 500

